src/icons/solid/symbols/speach-recording.svg

<svg width="24" height="24" viewBox="0 0 24 24" fill="none" xmlns="http://www.w3.org/2000/svg">
<g clip-path="url(#clip0_6020_969)">
<path d="M12 1C12.5098 1.00022 12.9199 1.41028 12.9199 1.91992V22.0811C12.9197 22.5905 12.5097 22.9998 12 23C11.4901 23 11.0803 22.5906 11.0801 22.0811V1.91992C11.0801 1.41015 11.49 1 12 1Z" fill="#3C3B44"/>
<path d="M8.33008 2.8291C8.83989 2.82932 9.25 3.23939 9.25 3.74902V20.2412C9.25 20.7508 8.83989 21.1609 8.33008 21.1611C7.82008 21.1611 7.41016 20.751 7.41016 20.2412V3.74902C7.41016 3.23925 7.82008 2.8291 8.33008 2.8291Z" fill="#3C3B44"/>
<path d="M15.6699 2.8291C16.1799 2.8291 16.5898 3.23925 16.5898 3.74902V20.2412C16.5898 20.751 16.1799 21.1611 15.6699 21.1611C15.16 21.1611 14.75 20.751 14.75 20.2412V3.74902C14.75 3.23928 15.16 2.82914 15.6699 2.8291Z" fill="#3C3B44"/>
<path d="M4.66992 6.49805C5.17987 6.49805 5.58976 6.90729 5.58984 7.41699V16.583C5.58984 17.0928 5.17992 17.5029 4.66992 17.5029C4.15996 17.5029 3.75 17.0928 3.75 16.583V7.41699C3.75008 6.90732 4.16001 6.49809 4.66992 6.49805Z" fill="#3C3B44"/>
<path d="M19.3301 6.49805C19.8398 6.49827 20.2499 6.90743 20.25 7.41699V16.583C20.25 17.0926 19.8399 17.5027 19.3301 17.5029C18.8201 17.5029 18.4102 17.0928 18.4102 16.583V7.41699C18.4102 6.90729 18.8201 6.49805 19.3301 6.49805Z" fill="#3C3B44"/>
<path d="M1.91992 10.166C2.42992 10.166 2.83984 10.5762 2.83984 11.0859V12.915C2.83963 13.4246 2.42979 13.834 1.91992 13.834C1.41009 13.8339 1.00022 13.4246 1 12.915V11.0859C1 10.5762 1.40996 10.1661 1.91992 10.166Z" fill="#3C3B44"/>
<path d="M22.0801 10.166C22.5899 10.1662 23 10.5763 23 11.0859V12.915C22.9998 13.4245 22.5898 13.8338 22.0801 13.834C21.5702 13.834 21.1604 13.4246 21.1602 12.915V11.0859C21.1602 10.5762 21.5701 10.166 22.0801 10.166Z" fill="#3C3B44"/>
</g>
<defs>
<clipPath id="clip0_6020_969">
<rect width="24" height="24" fill="white"/>
</clipPath>
</defs>
</svg>

<svg xmlns="http://www.w3.org/2000/svg" width="24" height="24" fill="none" viewBox="0 0 24 24"><g fill="currentColor" clip-path="url(#a)"><path d="M12 1c.51 0 .92.41.92.92v20.16c0 .51-.41.919-.92.919s-.92-.41-.92-.919V1.92c0-.51.41-.92.92-.92M8.33 2.83c.51 0 .92.41.92.919v16.492c0 .51-.41.92-.92.92s-.92-.41-.92-.92V3.75c0-.51.41-.92.92-.92m7.34 0c.51 0 .92.41.92.919v16.492c0 .51-.41.92-.92.92s-.92-.41-.92-.92V3.75c0-.51.41-.92.92-.92m-11 3.668c.51 0 .92.41.92.919v9.166c0 .51-.41.92-.92.92s-.92-.41-.92-.92V7.417c0-.51.41-.919.92-.919m14.66 0c.51 0 .92.41.92.919v9.166c0 .51-.41.92-.92.92s-.92-.41-.92-.92V7.417c0-.51.41-.919.92-.919M1.92 10.166c.51 0 .92.41.92.92v1.829c0 .51-.41.919-.92.919s-.92-.41-.92-.919v-1.83c0-.509.41-.919.92-.919m20.16 0c.51 0 .92.41.92.92v1.829c0 .51-.41.919-.92.919s-.92-.41-.92-.919v-1.83c0-.509.41-.919.92-.919"/></g><defs><clipPath id="a"><path fill="currentColor" d="M0 0h24v24H0z"/></clipPath></defs></svg>
